img/icons/location-red.svg

<svg width="36" height="36" viewBox="0 0 36 36" fill="none" xmlns="http://www.w3.org/2000/svg">
<path fill-rule="evenodd" clip-rule="evenodd" d="M24.823 18.2455L18.0682 28.0804L11.2622 18.2783C10.1464 16.063 10.0266 13.4215 10.9365 11.1004C13.5727 4.37524 22.427 4.35199 25.102 11.0787C26.0212 13.3903 25.9186 16.0276 24.823 18.2455ZM27.2974 19.6648L19.6714 31.2635L19.6703 31.2657L19.5963 31.4154L18.881 32.4852C18.5255 33.2049 17.5695 33.2087 17.2085 32.492L16.5657 31.4277L16.4906 31.2785L16.4895 31.2763L8.79868 19.7176C7.27648 16.6953 7.11297 13.0916 8.35435 9.92478C11.9549 0.739787 24.0328 0.72326 27.6783 9.89051C28.9317 13.0424 28.7923 16.6387 27.2974 19.6648ZM19.4666 14.0741C19.4687 14.9079 18.8429 15.5854 18.0689 15.5873C17.2949 15.5892 16.6658 14.9148 16.6638 14.0809C16.6617 13.2471 17.2875 12.5696 18.0615 12.5677C18.8355 12.5658 19.4646 13.2403 19.4666 14.0741ZM22.2695 14.0672C22.2756 16.5687 20.3983 18.6011 18.0763 18.6068C15.7543 18.6125 13.867 16.5893 13.8609 14.0878C13.8548 11.5863 15.7321 9.55389 18.0541 9.54821C20.3761 9.54252 22.2634 11.5657 22.2695 14.0672Z" fill="#E3000F"/>
</svg>

<svg width="36" height="36" fill="none" xmlns="http://www.w3.org/2000/svg"><path fill-rule="evenodd" clip-rule="evenodd" d="M24.823 18.245l-6.755 9.835-6.806-9.802a8.864 8.864 0 01-.325-7.178c2.636-6.725 11.49-6.748 14.165-.021a8.88 8.88 0 01-.279 7.166zm2.474 1.42l-7.626 11.599v.002l-.075.15-.715 1.07a.918.918 0 01-1.672.006l-.643-1.064-.075-.15-.002-.002L8.8 19.718c-1.523-3.023-1.686-6.626-.445-9.793C11.954.74 24.033.723 27.678 9.89c1.254 3.151 1.114 6.748-.38 9.774zm-7.83-5.59c.002.833-.624 1.51-1.398 1.512-.774.002-1.403-.672-1.405-1.506-.002-.834.623-1.511 1.397-1.513.774-.002 1.404.672 1.406 1.506zm2.803-.008c.006 2.502-1.872 4.534-4.194 4.54-2.322.006-4.209-2.018-4.215-4.52-.006-2.5 1.871-4.533 4.193-4.539 2.322-.005 4.21 2.018 4.216 4.52z" fill="#E3000F"/></svg>
